X: 106106
Q:"Reel."
M: C
L: 1/8
K: D
|: B |\
defd gedc | defd ecBA |\
defd gfeg | faAc d2-d :|\
"_Fine"D4 ||



